Numix/64/mimetypes/image-x-minolta-mrw.svg

<?xml version="1.0" encoding="UTF-8" standalone="no"?>
<svg
   xmlns:dc="http://purl.org/dc/elements/1.1/"
   xmlns:cc="http://creativecommons.org/ns#"
   xmlns:rdf="http://www.w3.org/1999/02/22-rdf-syntax-ns#"
   xmlns:svg="http://www.w3.org/2000/svg"
   xmlns="http://www.w3.org/2000/svg"
   xmlns:sodipodi="http://sodipodi.sourceforge.net/DTD/sodipodi-0.dtd"
   xmlns:inkscape="http://www.inkscape.org/namespaces/inkscape"
   width="64px"
   height="64px"
   viewBox="0 0 64 64"
   version="1.1"
   id="svg2"
   inkscape:version="0.91 r13725"
   sodipodi:docname="image-x-minolta-mrw.svg">
  <metadata
     id="metadata17">
    <rdf:RDF>
      <cc:Work
         rdf:about="">
        <dc:format>image/svg+xml</dc:format>
        <dc:type
           rdf:resource="http://purl.org/dc/dcmitype/StillImage" />
        <dc:title />
      </cc:Work>
    </rdf:RDF>
  </metadata>
  <defs
     id="defs15">
    <clipPath
       id="clipPath-258929573">
      <g
         transform="translate(0,-1004.3622)"
         id="g17">
        <path
           inkscape:connector-curvature="0"
           d="m -24,13 c 0,1.105 -0.672,2 -1.5,2 -0.828,0 -1.5,-0.895 -1.5,-2 0,-1.105 0.672,-2 1.5,-2 0.828,0 1.5,0.895 1.5,2 z"
           transform="matrix(15.333333,0,0,11.5,414.99999,878.8622)"
           style="fill:#1890d0"
           id="path19" />
      </g>
    </clipPath>
    <clipPath
       id="clipPath-258929573-2">
      <g
         transform="translate(0,-1004.3622)"
         id="g17-7">
        <path
           inkscape:connector-curvature="0"
           d="m -24,13 c 0,1.105 -0.672,2 -1.5,2 -0.828,0 -1.5,-0.895 -1.5,-2 0,-1.105 0.672,-2 1.5,-2 0.828,0 1.5,0.895 1.5,2 z"
           transform="matrix(15.333333,0,0,11.5,414.99999,878.8622)"
           style="fill:#1890d0"
           id="path19-3" />
      </g>
    </clipPath>
  </defs>
  <sodipodi:namedview
     pagecolor="#ffffff"
     bordercolor="#666666"
     borderopacity="1"
     objecttolerance="10"
     gridtolerance="10"
     guidetolerance="10"
     inkscape:pageopacity="0"
     inkscape:pageshadow="2"
     inkscape:window-width="1920"
     inkscape:window-height="1013"
     id="namedview13"
     showgrid="true"
     inkscape:zoom="16"
     inkscape:cx="21.591055"
     inkscape:cy="29.11484"
     inkscape:window-x="0"
     inkscape:window-y="27"
     inkscape:window-maximized="1"
     inkscape:current-layer="svg2">
    <inkscape:grid
       type="xygrid"
       id="grid4306" />
  </sodipodi:namedview>
  <path
     inkscape:connector-curvature="0"
     id="path5"
     d="M 10.671875,0 C 9.296875,0 8,1.355469 8,2.789062 L 8,61.210938 C 8,62.566406 9.375,64 10.671875,64 l 42.65625,0 C 54.625,64 56,62.566406 56,61.210938 L 56,18 38,0 Z m 0,0"
     style="fill:#35a14c;fill-opacity:1;fill-rule:nonzero;stroke:none" />
  <path
     inkscape:connector-curvature="0"
     id="path7"
     d="m 42,18 14,14 0,-14 z m 0,0"
     style="fill:#000000;fill-opacity:0.19607801;fill-rule:nonzero;stroke:none" />
  <path
     inkscape:connector-curvature="0"
     id="path9"
     d="M 38,0 55.984375,18 40.757812,18 C 39.410156,18 38,16.574219 38,15.226562 Z m 0,0"
     style="fill:#ffffff;fill-opacity:0.39215698;fill-rule:nonzero;stroke:none" />
  <path
     inkscape:connector-curvature="0"
     id="path13"
     d="M 8,48 8,61.33594 C 8,62.63281 9.375,64 10.664062,64 l 42.671876,0 C 54.625,64 56,62.63281 56,61.33594 L 56,48 Z m 0,0"
     style="fill:#000000;fill-opacity:0.19607801;fill-rule:nonzero;stroke:none" />
  <path
     inkscape:connector-curvature="0"
     id="path4309"
     style="font-style:normal;font-variant:normal;font-weight:bold;font-stretch:normal;font-size:medium;line-height:125%;font-family:'Ubuntu Mono';-inkscape-font-specification:'Ubuntu Mono, Bold';text-align:start;letter-spacing:0px;word-spacing:0px;writing-mode:lr-tb;text-anchor:start;fill:#ffffff;fill-opacity:1;stroke:none;stroke-width:1px;stroke-linecap:butt;stroke-linejoin:miter;stroke-opacity:1"
     d="m 20.735696,51 q 0.138766,0.373183 0.337004,0.959612 0.218061,0.586431 0.455946,1.261713 0.237885,0.675284 0.475771,1.368336 0.237885,0.693054 0.455947,1.279484 0.237886,-0.657512 0.495595,-1.350566 0.257708,-0.710824 0.495595,-1.350566 0.237885,-0.657512 0.436122,-1.226171 Q 24.085915,51.373183 24.244505,51 l 2.022024,0 q 0.138767,1.439419 0.25771,2.807755 0.138766,1.368336 0.218061,2.718901 0.09911,1.332795 0.15859,2.701132 Q 26.960359,60.578352 27,62 l -2.240085,0 0.118941,-8.547657 -1.506608,4.655896 -1.784139,0 L 20.140976,53.452343 20.240088,62 18,62 q 0.05947,-1.350566 0.118943,-2.807753 0.0793,-1.45719 0.15859,-2.896609 0.0793,-1.439418 0.178414,-2.789982 Q 18.574891,52.15509 18.713656,51 l 2.022026,0 z" />
  <path
     inkscape:connector-curvature="0"
     id="path4311"
     style="font-style:normal;font-variant:normal;font-weight:bold;font-stretch:normal;font-size:medium;line-height:125%;font-family:'Ubuntu Mono';-inkscape-font-specification:'Ubuntu Mono, Bold';text-align:start;letter-spacing:0px;word-spacing:0px;writing-mode:lr-tb;text-anchor:start;fill:#ffffff;fill-opacity:1;stroke:none;stroke-width:1px;stroke-linecap:butt;stroke-linejoin:miter;stroke-opacity:1"
     d="m 31.574713,51 q 0.852874,0 1.544827,0.210862 0.691955,0.210863 1.190805,0.65016 0.498851,0.439297 0.756321,1.1246 0.273564,0.667732 0.273564,1.58147 0,0.948882 -0.354023,1.722045 -0.354024,0.773163 -1.174712,1.177317 0.273562,0.456869 0.57931,1.01917 0.305746,0.544728 0.595402,1.159744 0.289655,0.597444 0.547127,1.21246 Q 35.806896,61.455272 36,62 l -2.075862,0 q -0.370115,-1.054313 -0.868965,-2.020766 -0.482759,-0.984026 -1.045977,-1.985623 l -1.029886,0 0,4.006389 L 29,62 29,51.28115 q 0.289656,-0.07029 0.627587,-0.123003 0.354023,-0.07029 0.708046,-0.08786 0.354023,-0.03514 0.675862,-0.05272 Q 31.333334,51 31.574713,51 Z m 1.754023,3.549521 q 0,-0.861023 -0.482758,-1.265175 -0.482759,-0.404155 -1.271265,-0.404155 -0.112643,0 -0.273563,0.01757 -0.160919,0 -0.32184,0.03514 l 0,3.268372 0.434482,0 q 1.013795,0 1.46437,-0.421726 0.450574,-0.439297 0.450574,-1.230031 z" />
  <path
     inkscape:connector-curvature="0"
     id="path4313"
     style="font-style:normal;font-variant:normal;font-weight:bold;font-stretch:normal;font-size:medium;line-height:125%;font-family:'Ubuntu Mono';-inkscape-font-specification:'Ubuntu Mono, Bold';text-align:start;letter-spacing:0px;word-spacing:0px;writing-mode:lr-tb;text-anchor:start;fill:#ffffff;fill-opacity:1;stroke:none;stroke-width:1px;stroke-linecap:butt;stroke-linejoin:miter;stroke-opacity:1"
     d="m 42.810563,54.891762 q 0.07049,0.337641 0.211454,0.835217 0.14097,0.497577 0.299561,1.101778 0.176212,0.6042 0.370045,1.297254 0.211454,0.693052 0.405286,1.421647 0,-0.92407 -0.01763,-1.972536 -0.01762,-1.066236 -0.03524,-2.168013 -0.01762,-1.101778 -0.03524,-2.221324 Q 43.991185,52.048466 43.991185,51 L 46,51 q -0.05286,1.350566 -0.105726,2.789985 -0.05286,1.421648 -0.123348,2.843295 -0.07049,1.403877 -0.176213,2.772214 Q 45.506623,60.77383 45.383269,62 l -1.79736,0 Q 43.198244,60.880453 42.810578,59.600969 42.422912,58.303717 42.035246,57.130857 41.647579,58.250405 41.224672,59.565429 40.801763,60.880453 40.449339,62 l -1.79736,0 Q 38.511009,60.77383 38.405281,59.405494 38.299555,58.019387 38.211449,56.615509 38.140961,55.193861 38.088101,53.772213 38.035235,52.332795 38,51 l 2.008816,0 q -0.01762,1.048466 -0.03524,2.168013 -0.01762,1.119549 -0.03524,2.239096 -0.01762,1.101777 -0.03524,2.168013 -0.01762,1.048466 -0.01762,1.972536 0.158591,-0.568659 0.352423,-1.243941 0.211455,-0.675283 0.387666,-1.332795 0.193834,-0.657512 0.352424,-1.208401 0.15859,-0.550888 0.246697,-0.870759 l 1.585906,0 z" />
  <g
     transform="matrix(0.80051185,0,0,0.80026785,12.788106,12.78717)"
     style="fill:#ffffff;fill-opacity:1"
     id="g59">
    <g
       id="g61"
       clip-path="url(#clipPath-258929573-2)"
       style="fill:#ffffff">
      <!-- color: #3d3d3d -->
      <g
         id="g63"
         style="fill:#ffffff">
        <path
           inkscape:connector-curvature="0"
           d="M 27.08,9.641 23.471,19.793 37.705,17.43 C 35.603,13.438 31.721,10.5 27.08,9.641 m 0,0"
           style="fill:#ffffff;fill-rule:nonzero;stroke:none"
           id="path65" />
        <path
           inkscape:connector-curvature="0"
           d="m 38.15,19.449 -10.738,1.988 9.199,10.98 c 2.457,-3.797 3.09,-8.586 1.527,-12.969 m 0.012,0"
           style="fill:#ffffff;fill-rule:nonzero;stroke:none"
           id="path67" />
        <path
           inkscape:connector-curvature="0"
           d="m 35.07,33.809 -7.121,-8.164 -5.05,13.344 c 4.566,0.195 9.09,-1.656 12.156,-5.18 m 0.012,0"
           style="fill:#ffffff;fill-rule:nonzero;stroke:none"
           id="path69" />
        <path
           inkscape:connector-curvature="0"
           d="m 20.922,38.36 3.617,-10.152 -14.242,2.363 c 2.109,3.996 5.996,6.934 10.625,7.789 m 0,0"
           style="fill:#ffffff;fill-rule:nonzero;stroke:none"
           id="path71" />
        <path
           inkscape:connector-curvature="0"
           d="M 9.852,28.559 20.586,26.571 11.387,15.591 C 8.934,19.392 8.297,24.177 9.86,28.56 m -0.008,0"
           style="fill:#ffffff;fill-rule:nonzero;stroke:none"
           id="path73" />
        <path
           inkscape:connector-curvature="0"
           d="m 12.926,14.207 7.121,8.164 5.05,-13.344 c -4.563,-0.195 -9.09,1.656 -12.152,5.18 m -0.016,0"
           style="fill:#ffffff;fill-rule:nonzero;stroke:none"
           id="path75" />
      </g>
    </g>
  </g>
</svg>

<svg xmlns="http://www.w3.org/2000/svg" viewBox="0 0 64 64">
 <defs>
  
 </defs>
 <path d="m 10.672 0 c -1.375 0 -2.672 1.355 -2.672 2.789 l 0 58.42 c 0 1.355 1.375 2.789 2.672 2.789 l 42.656 0 c 1.297 0 2.672 -1.434 2.672 -2.789 l 0 -43.21 -18 -18 m -27.328 0" style="fill:#35a14c;fill-opacity:1;stroke:none;fill-rule:nonzero"/>
 <path d="m 42 18 14 14 0 -14 z m 0 0" style="fill:#000;fill-opacity:0.196;stroke:none;fill-rule:nonzero"/>
 <path d="m 38 0 17.984 18 -15.227 0 c -1.348 0 -2.758 -1.426 -2.758 -2.773 m 0 -15.227" style="fill:#fff;fill-opacity:0.392;stroke:none;fill-rule:nonzero"/>
 <path d="m 8 48 0 13.336 c 0 1.297 1.375 2.664 2.664 2.664 l 42.672 0 c 1.289 0 2.664 -1.367 2.664 -2.664 l 0 -13.336 m -48 0" style="fill:#000;fill-opacity:0.196;stroke:none;fill-rule:nonzero"/>
 <path d="m 20.736 51 q 0.139 0.373 0.337 0.96 0.218 0.586 0.456 1.262 0.238 0.675 0.476 1.368 0.238 0.693 0.456 1.279 0.238 -0.658 0.496 -1.351 0.258 -0.711 0.496 -1.351 0.238 -0.658 0.436 -1.226 q 0.198 -0.569 0.357 -0.942 l 2.022 0 q 0.139 1.439 0.258 2.808 0.139 1.368 0.218 2.719 0.099 1.333 0.159 2.701 q 0.059 1.351 0.099 2.772 l -2.24 0 0.119 -8.548 -1.507 4.656 -1.784 0 l -1.447 -4.656 0.099 8.548 -2.24 0 q 0.059 -1.351 0.119 -2.808 0.079 -1.457 0.159 -2.897 0.079 -1.439 0.178 -2.79 q 0.119 -1.351 0.258 -2.506 l 2.022 0 z" style="fill:#fff;fill-opacity:1;stroke:none"/>
 <path d="m 31.575 51 q 0.853 0 1.545 0.211 0.692 0.211 1.191 0.65 0.499 0.439 0.756 1.125 0.274 0.668 0.274 1.581 0 0.949 -0.354 1.722 -0.354 0.773 -1.175 1.177 0.274 0.457 0.579 1.019 0.306 0.545 0.595 1.16 0.29 0.597 0.547 1.212 q 0.274 0.597 0.467 1.142 l -2.076 0 q -0.37 -1.054 -0.869 -2.02 -0.483 -0.984 -1.046 -1.986 l -1.03 0 0 4.01 l -1.979 0 0 -10.719 q 0.29 -0.07 0.628 -0.123 0.354 -0.07 0.708 -0.088 0.354 -0.035 0.676 -0.053 q 0.322 -0.018 0.563 -0.018 m 1.754 3.55 q 0 -0.861 -0.483 -1.265 -0.483 -0.404 -1.271 -0.404 -0.113 0 -0.274 0.018 -0.161 0 -0.322 0.035 l 0 3.268 0.434 0 q 1.014 0 1.464 -0.422 0.451 -0.439 0.451 -1.23 z" style="fill:#fff;fill-opacity:1;stroke:none"/>
 <path d="m 42.811 54.892 q 0.07 0.338 0.211 0.835 0.141 0.498 0.3 1.102 0.176 0.604 0.37 1.297 0.211 0.693 0.405 1.422 0 -0.924 -0.018 -1.973 -0.018 -1.066 -0.035 -2.168 -0.018 -1.102 -0.035 -2.221 q -0.018 -1.137 -0.018 -2.186 l 2.01 0 q -0.053 1.351 -0.106 2.79 -0.053 1.422 -0.123 2.843 -0.07 1.404 -0.176 2.772 q -0.088 1.368 -0.211 2.595 l -1.797 0 q -0.388 -1.12 -0.775 -2.399 -0.388 -1.297 -0.775 -2.47 -0.388 1.12 -0.811 2.435 -0.423 1.315 -0.775 2.435 l -1.797 0 q -0.141 -1.226 -0.247 -2.595 -0.106 -1.386 -0.194 -2.79 -0.07 -1.422 -0.123 -2.843 -0.053 -1.439 -0.088 -2.772 l 2.01 0 q -0.018 1.048 -0.035 2.168 -0.018 1.12 -0.035 2.239 -0.018 1.102 -0.035 2.168 -0.018 1.048 -0.018 1.973 0.159 -0.569 0.352 -1.244 0.211 -0.675 0.388 -1.333 0.194 -0.658 0.352 -1.208 0.159 -0.551 0.247 -0.871 l 1.586 0 z" style="fill:#fff;fill-opacity:1;stroke:none"/>
 <g transform="matrix(0.80051185,0,0,0.80026785,12.788106,12.78717)" style="fill:#fff;fill-opacity:1">
  <g style="clip-path:url(#clipPath-258929573-2);fill:#fff">
   <!-- color: #3d3d3d -->
   <g style="fill:#fff">
    <path d="M 27.08,9.641 23.471,19.793 37.705,17.43 C 35.603,13.438 31.721,10.5 27.08,9.641 m 0,0" style="fill:#fff;stroke:none;fill-rule:nonzero"/>
    <path d="m 38.15 19.449 -10.738 1.988 9.199 10.98 c 2.457 -3.797 3.09 -8.586 1.527 -12.969 m 0.012 0" style="fill:#fff;stroke:none;fill-rule:nonzero"/>
    <path d="m 35.07 33.809 -7.121 -8.164 -5.05 13.344 c 4.566 0.195 9.09 -1.656 12.156 -5.18 m 0.012 0" style="fill:#fff;stroke:none;fill-rule:nonzero"/>
    <path d="m 20.922 38.36 3.617 -10.152 -14.242 2.363 c 2.109 3.996 5.996 6.934 10.625 7.789 m 0 0" style="fill:#fff;stroke:none;fill-rule:nonzero"/>
    <path d="M 9.852,28.559 20.586,26.571 11.387,15.591 C 8.934,19.392 8.297,24.177 9.86,28.56 m -0.008,0" style="fill:#fff;stroke:none;fill-rule:nonzero"/>
    <path d="m 12.926 14.207 7.121 8.164 5.05 -13.344 c -4.563 -0.195 -9.09 1.656 -12.152 5.18 m -0.016 0" style="fill:#fff;stroke:none;fill-rule:nonzero"/>
   </g>
  </g>
 </g>
</svg>
